public/pattern/partnership-gradient.svg

<svg fill="none" height="1026" viewBox="0 0 2878 1026" width="2878" xmlns="http://www.w3.org/2000/svg" xmlns:xlink="http://www.w3.org/1999/xlink"><filter id="a" color-interpolation-filters="sRGB" filterUnits="userSpaceOnUse" height="2515.55" width="2959.43" x="415.144" y="-931.011"><feFlood flood-opacity="0" result="BackgroundImageFix"/><feBlend in="SourceGraphic" in2="BackgroundImageFix" mode="normal" result="shape"/><feGaussianBlur result="effect1_foregroundBlur_454_16187" stdDeviation="120"/></filter><filter id="b" color-interpolation-filters="sRGB" filterUnits="userSpaceOnUse" height="1361.95" width="714.866" x="597.452" y="-811.857"><feFlood flood-opacity="0" result="BackgroundImageFix"/><feBlend in="SourceGraphic" in2="BackgroundImageFix" mode="normal" result="shape"/><feGaussianBlur result="effect1_foregroundBlur_454_16187" stdDeviation="96"/></filter><filter id="c" color-interpolation-filters="sRGB" filterUnits="userSpaceOnUse" height="1189.79" width="717.826" x="1418.04" y="-532.845"><feFlood flood-opacity="0" result="BackgroundImageFix"/><feBlend in="SourceGraphic" in2="BackgroundImageFix" mode="normal" result="shape"/><feGaussianBlur result="effect1_foregroundBlur_454_16187" stdDeviation="96"/></filter><filter id="d" color-interpolation-filters="sRGB" filterUnits="userSpaceOnUse" height="1058.69" width="685.586" x="821.508" y="-499.964"><feFlood flood-opacity="0" result="BackgroundImageFix"/><feBlend in="SourceGraphic" in2="BackgroundImageFix" mode="normal" result="shape"/><feGaussianBlur result="effect1_foregroundBlur_454_16187" stdDeviation="96"/></filter><linearGradient id="e" gradientUnits="userSpaceOnUse" x1="214.536" x2="214.536" y1="0" y2="429.072"><stop offset=".442708" stop-color="#fff" stop-opacity=".17"/><stop offset="1" stop-color="#fff"/></linearGradient><linearGradient id="f" gradientUnits="userSpaceOnUse" x1="1893.66" x2="1901.84" y1="950.198" y2="428.952"><stop offset="0" stop-color="#f63b7e"/><stop offset=".145" stop-color="#f66c3b" stop-opacity=".72"/><stop offset="1" stop-color="#fff" stop-opacity="0"/></linearGradient><linearGradient id="g" gradientUnits="userSpaceOnUse" x1="1797.35" x2="1815.68" y1="163.019" y2="646.336"><stop offset="0" stop-color="#1246ff"/><stop offset=".346825" stop-color="#f452f7" stop-opacity=".48"/><stop offset="1" stop-color="#fff" stop-opacity="0"/></linearGradient><linearGradient id="h"><stop offset="0" stop-color="#0099c9"/><stop offset=".254996" stop-color="#95cb24" stop-opacity=".906147"/><stop offset="1" stop-color="#fff" stop-opacity="0"/></linearGradient><linearGradient id="i" gradientUnits="userSpaceOnUse" x1="1703.28" x2="1558" xlink:href="#h" y1="46.2595" y2="441.487"/><linearGradient id="j" gradientUnits="userSpaceOnUse" x1="1885.88" x2="1752.37" y1="167.649" y2="487.47"><stop offset="0" stop-color="#2a8300"/><stop offset=".4" stop-color="#d1ab25" stop-opacity=".855"/><stop offset="1" stop-color="#fff" stop-opacity="0"/></linearGradient><linearGradient id="k" gradientUnits="userSpaceOnUse" x1="1156.4" x2="1009.18" y1="232.926" y2="-98.605"><stop offset="0" stop-color="#97bedb"/><stop offset=".145" stop-color="#2b9fed"/><stop offset="1" stop-color="#fff" stop-opacity="0"/></linearGradient><linearGradient id="l" gradientUnits="userSpaceOnUse" x1="1753.8" x2="1745.04" xlink:href="#h" y1="423.507" y2="107.816"/><linearGradient id="m" gradientUnits="userSpaceOnUse" x1="1125.13" x2="1129.14" y1="325.665" y2="65.7688"><stop offset=".602207" stop-color="#f66c3b"/><stop offset="1" stop-color="#fff" stop-opacity="0"/></linearGradient><clipPath id="n"><path d="m0 0h2878v1026h-2878z"/></clipPath><g clip-path="url(#n)"><g filter="url(#a)"><g stroke-width="3.75"><path d="m-3.33773-.466474h1428.19v1354.99h-1428.19z" opacity=".6" stroke="#fff" stroke-dasharray="7.5 7.5" transform="matrix(-.829361 -.558713 -.95076 .309927 3128.02 106.845)"/><path d="m-3.33773-.466474h1296.74v1230.26h-1296.74z" opacity=".6" stroke="#fff" stroke-dasharray="7.5 7.5" transform="matrix(-.829361 -.558713 -.95076 .309927 3014.22 89.4524)"/><path d="m-3.33773-.466474h1175.15v1114.88h-1175.15z" opacity=".6" stroke="#fff" stroke-dasharray="7.5 7.5" transform="matrix(-.829361 -.558713 -.95076 .309927 3047.21 120.992)"/><path d="m-3.33773-.466474h1045.86v992.2h-1045.86z" opacity=".6" stroke="#fff" stroke-dasharray="7.5 7.5" transform="matrix(-.829361 -.558713 -.95076 .309927 2786.6 54.6678)"/><rect height="425.322" opacity=".1" rx="9.375" stroke="url(#e)" stroke-linejoin="round" transform="matrix(-.829361 -.558713 -.95076 .309927 2234.69 105.09)" width="425.322" x="-3.33773" y="-.466474"/><rect height="425.322" opacity=".1" rx="9.375" stroke="url(#e)" stroke-linejoin="round" transform="matrix(-.829361 -.558713 -.95076 .309927 2226.39 164.513)" width="425.322" x="-3.33773" y="-.466474"/></g><path d="m1954.75 973.611 185.46 58.089-180.84-1293.807-185.46-58.094z" fill="url(#f)" fill-opacity=".5"/><path d="m1858.4 139.858 185.46-58.093-168.38 1204.675-185.46 58.1z" fill="url(#g)" fill-opacity=".5"/><path d="m1650.86 7.66992-162.42-106.71332-147.59 1056.1254 162.43 106.718z" fill="url(#i)" fill-opacity=".5"/><path d="m1833.4 129.564-162.43-106.7129-122.67 877.8579 162.42 106.711z" fill="url(#j)" fill-opacity=".5"/></g><g filter="url(#b)"><path d="m1120.32 266.041-113.01 92.055-217.858-885.898 113.012-92.055z" fill="url(#k)" fill-opacity=".5"/></g><g filter="url(#c)"><path d="m1801.05 435.802 142.82 29.14-191.01-776.647-142.82-29.14z" fill="url(#l)" fill-opacity=".5"/></g><g filter="url(#d)"><path d="m1172.28 337.589 142.81 29.141-158.76-645.554-142.82-29.14z" fill="url(#m)" fill-opacity=".5"/></g></g></svg>

<svg width="2878" height="1026" viewBox="0 0 2878 1026" fill="none" xmlns="http://www.w3.org/2000/svg">
<g clip-path="url(#clip0_454_16187)">
<g filter="url(#filter0_f_454_16187)">
<rect opacity="0.6" x="-3.33773" y="-0.466474" width="1428.19" height="1354.99" transform="matrix(-0.829361 -0.558713 -0.95076 0.309927 3128.02 106.845)" stroke="white" stroke-width="3.75" stroke-dasharray="7.5 7.5"/>
<rect opacity="0.6" x="-3.33773" y="-0.466474" width="1296.74" height="1230.26" transform="matrix(-0.829361 -0.558713 -0.95076 0.309927 3014.22 89.4524)" stroke="white" stroke-width="3.75" stroke-dasharray="7.5 7.5"/>
<rect opacity="0.6" x="-3.33773" y="-0.466474" width="1175.15" height="1114.88" transform="matrix(-0.829361 -0.558713 -0.95076 0.309927 3047.21 120.992)" stroke="white" stroke-width="3.75" stroke-dasharray="7.5 7.5"/>
<rect opacity="0.6" x="-3.33773" y="-0.466474" width="1045.86" height="992.2" transform="matrix(-0.829361 -0.558713 -0.95076 0.309927 2786.6 54.6678)" stroke="white" stroke-width="3.75" stroke-dasharray="7.5 7.5"/>
<rect opacity="0.1" x="-3.33773" y="-0.466474" width="425.322" height="425.322" rx="9.375" transform="matrix(-0.829361 -0.558713 -0.95076 0.309927 2234.69 105.09)" stroke="url(#paint0_linear_454_16187)" stroke-width="3.75" stroke-linejoin="round"/>
<rect opacity="0.1" x="-3.33773" y="-0.466474" width="425.322" height="425.322" rx="9.375" transform="matrix(-0.829361 -0.558713 -0.95076 0.309927 2226.39 164.513)" stroke="url(#paint1_linear_454_16187)" stroke-width="3.75" stroke-linejoin="round"/>
<path d="M1954.75 973.611L2140.21 1031.7L1959.37 -262.107L1773.91 -320.201L1954.75 973.611Z" fill="url(#paint2_linear_454_16187)" fill-opacity="0.5"/>
<path d="M1858.4 139.858L2043.86 81.765L1875.48 1286.44L1690.02 1344.54L1858.4 139.858Z" fill="url(#paint3_linear_454_16187)" fill-opacity="0.5"/>
<path d="M1650.86 7.66992L1488.44 -99.0434L1340.85 957.082L1503.28 1063.8L1650.86 7.66992Z" fill="url(#paint4_linear_454_16187)" fill-opacity="0.5"/>
<path d="M1833.4 129.564L1670.97 22.8511L1548.3 900.709L1710.72 1007.42L1833.4 129.564Z" fill="url(#paint5_linear_454_16187)" fill-opacity="0.5"/>
</g>
<g filter="url(#filter1_f_454_16187)">
<path d="M1120.32 266.041L1007.31 358.096L789.452 -527.802L902.464 -619.857L1120.32 266.041Z" fill="url(#paint6_linear_454_16187)" fill-opacity="0.5"/>
</g>
<g filter="url(#filter2_f_454_16187)">
<path d="M1801.05 435.802L1943.87 464.942L1752.86 -311.705L1610.04 -340.845L1801.05 435.802Z" fill="url(#paint7_linear_454_16187)" fill-opacity="0.5"/>
</g>
<g filter="url(#filter3_f_454_16187)">
<path d="M1172.28 337.589L1315.09 366.73L1156.33 -278.824L1013.51 -307.964L1172.28 337.589Z" fill="url(#paint8_linear_454_16187)" fill-opacity="0.5"/>
</g>
</g>
<defs>
<filter id="filter0_f_454_16187" x="415.144" y="-931.011" width="2959.43" height="2515.55" filterUnits="userSpaceOnUse" color-interpolation-filters="sRGB">
<feFlood flood-opacity="0" result="BackgroundImageFix"/>
<feBlend mode="normal" in="SourceGraphic" in2="BackgroundImageFix" result="shape"/>
<feGaussianBlur stdDeviation="120" result="effect1_foregroundBlur_454_16187"/>
</filter>
<filter id="filter1_f_454_16187" x="597.452" y="-811.857" width="714.866" height="1361.95" filterUnits="userSpaceOnUse" color-interpolation-filters="sRGB">
<feFlood flood-opacity="0" result="BackgroundImageFix"/>
<feBlend mode="normal" in="SourceGraphic" in2="BackgroundImageFix" result="shape"/>
<feGaussianBlur stdDeviation="96" result="effect1_foregroundBlur_454_16187"/>
</filter>
<filter id="filter2_f_454_16187" x="1418.04" y="-532.845" width="717.826" height="1189.79" filterUnits="userSpaceOnUse" color-interpolation-filters="sRGB">
<feFlood flood-opacity="0" result="BackgroundImageFix"/>
<feBlend mode="normal" in="SourceGraphic" in2="BackgroundImageFix" result="shape"/>
<feGaussianBlur stdDeviation="96" result="effect1_foregroundBlur_454_16187"/>
</filter>
<filter id="filter3_f_454_16187" x="821.508" y="-499.964" width="685.586" height="1058.69" filterUnits="userSpaceOnUse" color-interpolation-filters="sRGB">
<feFlood flood-opacity="0" result="BackgroundImageFix"/>
<feBlend mode="normal" in="SourceGraphic" in2="BackgroundImageFix" result="shape"/>
<feGaussianBlur stdDeviation="96" result="effect1_foregroundBlur_454_16187"/>
</filter>
<linearGradient id="paint0_linear_454_16187" x1="214.536" y1="0" x2="214.536" y2="429.072" gradientUnits="userSpaceOnUse">
<stop offset="0.442708" stop-color="white" stop-opacity="0.17"/>
<stop offset="1" stop-color="white"/>
</linearGradient>
<linearGradient id="paint1_linear_454_16187" x1="214.536" y1="0" x2="214.536" y2="429.072" gradientUnits="userSpaceOnUse">
<stop offset="0.442708" stop-color="white" stop-opacity="0.17"/>
<stop offset="1" stop-color="white"/>
</linearGradient>
<linearGradient id="paint2_linear_454_16187" x1="1893.66" y1="950.198" x2="1901.84" y2="428.952" gradientUnits="userSpaceOnUse">
<stop stop-color="#F63B7E"/>
<stop offset="0.145" stop-color="#F66C3B" stop-opacity="0.72"/>
<stop offset="1" stop-color="white" stop-opacity="0"/>
</linearGradient>
<linearGradient id="paint3_linear_454_16187" x1="1797.35" y1="163.019" x2="1815.68" y2="646.336" gradientUnits="userSpaceOnUse">
<stop stop-color="#1246FF"/>
<stop offset="0.346825" stop-color="#F452F7" stop-opacity="0.48"/>
<stop offset="1" stop-color="white" stop-opacity="0"/>
</linearGradient>
<linearGradient id="paint4_linear_454_16187" x1="1703.28" y1="46.2595" x2="1558" y2="441.487" gradientUnits="userSpaceOnUse">
<stop stop-color="#0099C9"/>
<stop offset="0.254996" stop-color="#95CB24" stop-opacity="0.906147"/>
<stop offset="1" stop-color="white" stop-opacity="0"/>
</linearGradient>
<linearGradient id="paint5_linear_454_16187" x1="1885.88" y1="167.649" x2="1752.37" y2="487.47" gradientUnits="userSpaceOnUse">
<stop stop-color="#2A8300"/>
<stop offset="0.4" stop-color="#D1AB25" stop-opacity="0.855"/>
<stop offset="1" stop-color="white" stop-opacity="0"/>
</linearGradient>
<linearGradient id="paint6_linear_454_16187" x1="1156.4" y1="232.926" x2="1009.18" y2="-98.605" gradientUnits="userSpaceOnUse">
<stop stop-color="#97BEDB"/>
<stop offset="0.145" stop-color="#2B9FED"/>
<stop offset="1" stop-color="white" stop-opacity="0"/>
</linearGradient>
<linearGradient id="paint7_linear_454_16187" x1="1753.8" y1="423.507" x2="1745.04" y2="107.816" gradientUnits="userSpaceOnUse">
<stop stop-color="#0099C9"/>
<stop offset="0.254996" stop-color="#95CB24" stop-opacity="0.906147"/>
<stop offset="1" stop-color="white" stop-opacity="0"/>
</linearGradient>
<linearGradient id="paint8_linear_454_16187" x1="1125.13" y1="325.665" x2="1129.14" y2="65.7688" gradientUnits="userSpaceOnUse">
<stop offset="0.602207" stop-color="#F66C3B"/>
<stop offset="1" stop-color="white" stop-opacity="0"/>
</linearGradient>
<clipPath id="clip0_454_16187">
<rect width="2878" height="1026" fill="white"/>
</clipPath>
</defs>
</svg>
